icons/mobile/24/svg/save-file-24.svg

<svg width="24" height="24" viewBox="0 0 24 24" fill="none" xmlns="http://www.w3.org/2000/svg">
<path d="M11 2.02025H11.2344C11.8522 2.02035 12.4459 2.26507 12.8838 2.70189L17.3115 7.11302C17.7515 7.55202 18 8.14825 18 8.77025V11.9997H16.25V8.49974H12C11.448 8.49974 11 8.05174 11 7.49974V3.77025C9.28004 3.74025 7.55805 3.8468 5.87109 4.12279C5.23109 4.22779 4.75 4.80833 4.75 5.47533V18.4851C4.75005 19.169 5.2321 19.7649 5.87207 19.8699C8.33506 20.2768 10.8712 20.3231 13.3682 20.0681L14.5547 21.699C13.2108 21.8839 11.8529 21.9988 10.5 21.9988C8.857 21.9988 7.20291 21.8644 5.58691 21.5964C4.08796 21.3494 3.00005 20.041 3 18.4851V5.47435C3 3.93441 4.08895 2.63929 5.58887 2.39622C7.36787 2.10522 9.185 1.99025 11 2.02025Z" fill="black"/>
<path d="M18.125 13.9997C18.6079 13.9997 18.9999 14.3919 19 14.8747V17.9997H20.6123C21.286 18 21.6229 18.8148 21.1475 19.2908L18.6602 21.7781C18.3652 22.0731 17.8858 22.0731 17.5898 21.7781L15.1035 19.2908C14.6266 18.8138 14.9639 18 15.6377 17.9997H17.25V14.8747C17.2501 14.3919 17.6421 13.9997 18.125 13.9997Z" fill="black"/>
</svg>

<!-- This Source Code Form is subject to the terms of the Mozilla Public
   - License, v. 2.0. If a copy of the MPL was not distributed with this
   - file, You can obtain one at http://mozilla.org/MPL/2.0/. -->
<svg xmlns="http://www.w3.org/2000/svg" width="24" height="24" fill="none" viewBox="0 0 24 24">
    <path fill="#000" d="M11 2.02h.234c.618 0 1.212.245 1.65.682l4.427 4.411c.44.439.689 1.035.689 1.657V12h-1.75V8.5H12a1 1 0 0 1-1-1V3.77c-1.72-.03-3.442.077-5.129.353-.64.105-1.121.685-1.121 1.352v13.01c0 .684.482 1.28 1.122 1.385 2.463.407 5 .453 7.496.198l1.187 1.631a30 30 0 0 1-4.055.3c-1.643 0-3.297-.135-4.913-.403C4.088 21.35 3 20.041 3 18.486V5.473c0-1.54 1.089-2.835 2.589-3.078A30.5 30.5 0 0 1 11 2.02" />
    <path fill="#000" d="M18.125 14c.483 0 .875.392.875.875V18h1.612c.674 0 1.01.815.536 1.29l-2.488 2.488a.76.76 0 0 1-1.07 0l-2.486-2.487A.756.756 0 0 1 15.638 18h1.612v-3.125c0-.483.392-.875.875-.875" />
</svg>
